assets/eo.svg

<svg height="62" viewBox="0 0 78 62" width="78" xmlns="http://www.w3.org/2000/svg"><g fill="none" transform="translate(2 2)"><path d="m14.563 0h44.874c4.285 0 6.348.399 8.493 1.545 1.9269512 1.02182087 3.5031791 2.59804876 4.525 4.525 1.145 2.145 1.545 4.208 1.545 8.493v28.874c0 4.285-.399 6.348-1.545 8.493-1.0218209 1.9269512-2.5980488 3.5031791-4.525 4.525-2.145 1.145-4.208 1.545-8.493 1.545h-44.874c-4.285 0-6.348-.399-8.493-1.545-1.92695124-1.0218209-3.50317913-2.5980488-4.525-4.525-1.145-2.145-1.545-4.208-1.545-8.493v-28.874c0-4.285.399-6.348 1.545-8.493 1.02182087-1.92695124 2.59804876-3.50317913 4.525-4.525 2.145-1.145 4.208-1.545 8.493-1.545z" fill="#7ac70c" stroke="#fff" stroke-width="4"/><path d="m14.563 2h22.437v27c0 2.209139-1.790861 4-4 4h-31v-18.437c0-4.368.455-5.953 1.309-7.55.83539321-1.57809455 2.12590545-2.86860679 3.704-3.704 1.597-.854 3.182-1.309 7.55-1.309z" fill="#eee"/><path d="m18.597 24.712-3.418 1.797c-.717704.3770958-1.5872543.3140516-2.2430579-.1626264-.6558037-.476678-.9841317-1.2843246-.8469421-2.0833736l.652-3.805c.0479305-.2812266-.0455532-.5680346-.25-.767l-2.764-2.695c-.58109163-.5657996-.79043279-1.4125091-.53995116-2.1839076.25048163-.7713986.91731336-1.333605 1.71995116-1.4500924l3.821-.555c.2824071-.0409118.5266002-.2181667.653-.474l1.709-3.462c.3588378-.72699182 1.0992709-1.1872381 1.91-1.1872381s1.5511622.46024628 1.91 1.1872381l1.709 3.462c.126.256.37.433.653.474l3.82.555c.8026378.1164874 1.4694695.6786938 1.7199512 1.4500924.2504816.7713985.0411404 1.618108-.5399512 2.1839076l-2.764 2.695c-.2044468.1989654-.2979305.4857734-.25.767l.654 3.805c.1374654.7993361-.1909642 1.6073735-.8471079 2.0841443-.6561436.4767708-1.5261164.5395234-2.2438921.1618557l-3.418-1.797c-.252337-.1324723-.553663-.1324723-.806 0z" fill="#7ac70c"/></g></svg>

<?xml version="1.0" encoding="UTF-8"?>
<svg width="78px" height="62px" viewBox="0 0 78 62" version="1.1" xmlns="http://www.w3.org/2000/svg" xmlns:xlink="http://www.w3.org/1999/xlink">
    <!-- Generator: Sketch 61.2 (89653) - https://sketch.com -->
    <title>eo</title>
    <desc>Created with Sketch.</desc>
    <g id="Page-1" stroke="none" stroke-width="1" fill="none" fill-rule="evenodd">
        <g id="juicy-flag-sprite-7" transform="translate(2.000000, -1516.000000)" fill-rule="nonzero">
            <g id="eo" transform="translate(0.000000, 1518.000000)">
                <g id="Group">
                    <g id="Path">
                        <path d="M14.563,0 L59.437,0 C63.722,0 65.785,0.399 67.93,1.545 C69.8569512,2.56682087 71.4331791,4.14304876 72.455,6.07 C73.6,8.215 74,10.278 74,14.563 L74,43.437 C74,47.722 73.601,49.785 72.455,51.93 C71.4331791,53.8569512 69.8569512,55.4331791 67.93,56.455 C65.785,57.6 63.722,58 59.437,58 L14.563,58 C10.278,58 8.215,57.601 6.07,56.455 C4.14304876,55.4331791 2.56682087,53.8569512 1.545,51.93 C0.4,49.785 0,47.722 0,43.437 L0,14.563 C0,10.278 0.399,8.215 1.545,6.07 C2.56682087,4.14304876 4.14304876,2.56682087 6.07,1.545 C8.215,0.4 10.278,0 14.563,0 Z" stroke="#FFFFFF" stroke-width="4" fill="#7AC70C"></path>
                        <path d="M14.563,2 L37,2 L37,29 C37,31.209139 35.209139,33 33,33 L2,33 L2,14.563 C2,10.195 2.455,8.61 3.309,7.013 C4.14439321,5.43490545 5.43490545,4.14439321 7.013,3.309 C8.61,2.455 10.195,2 14.563,2 Z" fill="#EEEEEE"></path>
                        <path d="M18.597,24.712 L15.179,26.509 C14.461296,26.8860958 13.5917457,26.8230516 12.9359421,26.3463736 C12.2801384,25.8696956 11.9518104,25.062049 12.089,24.263 L12.741,20.458 C12.7889305,20.1767734 12.6954468,19.8899654 12.491,19.691 L9.727,16.996 C9.14590837,16.4302004 8.93656721,15.5834909 9.18704884,14.8120924 C9.43753047,14.0406938 10.1043622,13.4784874 10.907,13.362 L14.728,12.807 C15.0104071,12.7660882 15.2546002,12.5888333 15.381,12.333 L17.09,8.871 C17.4488378,8.14400818 18.1892709,7.6837619 19,7.6837619 C19.8107291,7.6837619 20.5511622,8.14400818 20.91,8.871 L22.619,12.333 C22.745,12.589 22.989,12.766 23.272,12.807 L27.092,13.362 C27.8946378,13.4784874 28.5614695,14.0406938 28.8119512,14.8120924 C29.0624328,15.5834909 28.8530916,16.4302004 28.272,16.996 L25.508,19.691 C25.3035532,19.8899654 25.2100695,20.1767734 25.258,20.458 L25.912,24.263 C26.0494654,25.0623361 25.7210358,25.8703735 25.0648921,26.3471443 C24.4087485,26.8239151 23.5387757,26.8866677 22.821,26.509 L19.403,24.712 C19.150663,24.5795277 18.849337,24.5795277 18.597,24.712 Z" fill="#7AC70C"></path>
                    </g>
                </g>
            </g>
        </g>
    </g>
</svg>
